packages/ui-icons/svg/Line/open-folder.svg

<svg viewBox="0 0 1920 1920" version="1.1" xmlns="http://www.w3.org/2000/svg">
    <path d="M494.165333,640.333333 L215.765333,1531.10667 L317.632,1562.89333 L572.458667,747 L1783.76533,747 L1600.40533,1664.12 C1595.392,1688.97333 1573.41867,1707 1548.13867,1707 L159.978667,1707 C130.645333,1707 106.645333,1683.10667 106.645333,1653.66667 L106.645333,213.666667 L561.152,213.666667 L732.778667,427 L1493.312,427 L1493.312,533.666667 L1599.97867,533.666667 L1599.97867,320.333333 L783.872,320.333333 L612.138667,107 L-0.0213333333,107 L-0.0213333333,1653.66667 C-0.0213333333,1741.88 71.7653333,1813.66667 159.978667,1813.66667 L1548.13867,1813.66667 C1624.08533,1813.66667 1690.112,1759.58667 1705.04533,1685.02667 L1914.00533,640.333333 L494.165333,640.333333 Z" stroke="none" stroke-width="1" fill-rule="evenodd"/>
</svg>

<svg viewBox="0 0 1920 1920" xmlns="http://www.w3.org/2000/svg">
    <path d="m494.165 640.333-278.4 890.774 101.867 31.786L572.459 747h1211.306l-183.36 917.12c-5.013 24.853-26.986 42.88-52.266 42.88H159.979c-29.334 0-53.334-23.893-53.334-53.333v-1440h454.507L732.779 427h760.533v106.667h106.667V320.333H783.872L612.139 107H-.021v1546.667c0 88.213 71.786 160 160 160h1388.16c75.946 0 141.973-54.08 156.906-128.64l208.96-1044.694H494.165Z" fill-rule="evenodd"/>
</svg>
